X:1
T:Oakhampton
T:D Major                    Jacob French, 1789
T:Transcribed from  The New American Melody, 1789.
T:Nahum Tate and Nicholas Brady, 1698 New Version (Psalm 82)                   86. 86. (C. M.)
%%score [ 1 2 3 4 ]
L:1/8
Q:1/4=120
M:3/2
K:D
V:1 treble nm="Tr." snm="Tr."
V:2 treble nm="C." snm="C."
V:3 treble-8 nm="T." snm="T."
V:4 bass nm="B." snm="B."
V:1
"_1. God in the great as – sem – bly stands Where  his  impartial  eye    In  state      sur – veys       the         earth    –    ly     gods, And does      their     judg   –  ments  try.\n2. How dare you then un–just –ly  judge,  Or  be to  sin–ners  kind?    De–fend      the   or    –    phans      and           the   poor,  Let   such     your     jus      –     tice  find." A8 A2 A2 | %1
 A8 [Ad]4 | B8 A4 | A8 A4 | A8 A4 | (F4 A4) ^G4 | A8 F4 | (A4 G4) F4 | (B3 A G4) (A2 dc) | %9
 B8 (A2 ^G2) | A8 A4 | (A3 G F4) A4 | (3(G2 A2 B2 [Ad]4) A4 | A12 |] %14
V:2
"_3. Protect the hum–ble help – less man,  Reduced  to  deep  distress,  And  let       not  him         be   –   come          a      prey  To   such         as       would      op – press.\n4. They neither know, nor will they learn, But blindly rove and stray; Jus – tice     and  truth,      the      world's    great props, Through  all   the      land         de  –  cay." D8 D2 D2 | %1
 (C2 D2 E4) D4 | (D4 G2 F2) E4 | F8 D4 | F8 A4 | F8 E4 | E8 D4 | (F4 E4) D4 | (D4 E4) (D2 F2) | %9
 E8 (F2 D2) | E8 E4 | (F3 E D4) F4 | (E4 F2 D2) [CE]4 | [DF]12 |] %14
V:3
"_5. But ne'er–the–less your un–just deeds  To  strict  account  I'll  call;   You all    shall  die            like        com   –   mon  men,  Like  o    –    ther      ty      –      rants  fall.\n6. Arise and thy just judgments, Lord,  Throughout the earth display; And all      the   na     –     tions       of            the world   Shall own      thy      right   –    eous sway." D8 F2 F2 | %1
 (E4 A4) F4 | (B3 c d4) c4 | d8 A4 | d8 e4 | (d3 e d2 c2) B4 | A8 A4 | (d3 c B4) A4 | B8 A4 | %9
 (G3 A G4) F4 | E8 A4 | (F3 G A4) (d3 c) | (3(B2 A2 G2 F4) E4 | D12 |] %14
V:4
"________________________________________________________\nEdited by B. C. Johnston, 2018\n   1. Measure 2, \nTreble\n: last note changed from A-C# to A-D.\n   2. Measure 13, Treble: fourth note changed from A-C# to A-D." D,8 D,2 D,2 | %1
 A,,8 D,4 | [G,,G,]8 [A,,A,]4 | D,8 D,4 | D,8 [A,,A,]4 | D,8 E,4 | A,,8 D,4 | (D,4 E,4) F,4 | %8
 (G,3 F, E,4) (F,2 D,2) | E,8 D,4 | A,,8 A,,4 | (D,3 E, F,4) D,4 | (E,4 [D,A,]4) A,,4 | D,12 |] %14

